static/assets/images/products/kubestash/addons/etcd-stash-addon.svg

<svg width="32" height="32" viewBox="0 0 32 32" fill="none" xmlns="http://www.w3.org/2000/svg">
<g clip-path="url(#clip0)">
<path d="M12.5527 12.656C13.6966 12.656 14.6551 13.5835 14.6551 14.7584C14.6551 15.9024 13.7276 16.8608 12.5527 16.8608C11.4087 16.8608 10.4503 15.9333 10.4503 14.7584C10.4812 13.5835 11.4087 12.656 12.5527 12.656Z" fill="#1971BD"/>
<path d="M19.4473 12.656C20.6531 12.656 21.5498 13.6763 21.5188 14.8203C21.4879 15.9333 20.5295 16.8609 19.3546 16.8299C18.1797 16.799 17.2831 15.8096 17.3449 14.6348C17.3759 13.5526 18.3343 12.6251 19.4473 12.656Z" fill="#1971BD"/>
<path d="M15.428 31.0522C14.8715 29.228 15.4899 27.2802 17.0357 26.1672C17.314 25.9507 17.4377 25.7652 17.4377 25.3942C17.4377 24.5903 17.5923 23.8483 17.8087 23.1681C17.7469 23.1681 17.685 23.1681 17.6232 23.199C17.0667 23.23 16.5411 23.2609 15.9845 23.2918C14.3459 23.2609 12.7382 23.0444 11.1614 22.6425C11.0686 22.6116 11.0068 22.5807 10.9449 22.4879C9.64638 20.4473 8.78068 18.2522 8.31691 15.8715C8.16232 15.0367 8.06956 14.2329 8.00773 13.3981C8.00773 13.3053 8.03865 13.2126 8.10048 13.1198C10.2029 10.5845 12.7691 8.69855 15.83 7.49275C15.9227 7.46184 15.9845 7.46184 16.0773 7.49275C19.1382 8.69855 21.7353 10.5845 23.8377 13.1507C23.8995 13.2435 23.9304 13.3362 23.9304 13.429C23.8068 15.2841 23.4357 17.1082 22.7865 18.8396C25.0126 18.4377 27.0222 18.9633 28.7227 20.6329C28.8773 20.7874 29.1865 20.9111 29.4338 20.9111C30.0213 20.9111 30.5778 21.0348 31.0725 21.2203C31.5672 19.8599 31.8763 18.4377 31.9691 16.9536C31.3507 17.0155 30.7324 17.0464 30.1449 16.9536C29.5575 16.8609 28.97 16.6754 28.4135 16.3971C28.4135 16.3353 28.4444 16.2734 28.4444 16.2116C28.5372 15.5932 28.599 15.0058 28.6609 14.3874C28.7536 13.5527 28.7845 12.687 28.7536 11.8522C28.7536 11.7285 28.7227 11.6667 28.6609 11.5739C27.8879 10.4609 27.0222 9.44058 26.0947 8.48213C25.971 8.35845 25.8473 8.23478 25.7237 8.11111C26.0328 7.52367 26.4039 7.02899 26.8676 6.59614C27.2386 6.22512 27.6406 5.94686 28.1043 5.6686C28.1662 5.63768 28.1971 5.60676 28.2589 5.57585C26.5585 3.53527 24.456 2.02029 21.9826 1C21.8589 1.58744 21.6734 2.17488 21.4261 2.70048C21.1478 3.257 20.8077 3.72077 20.3749 4.18454C20.313 4.15362 20.2512 4.12271 20.2203 4.09179C18.9217 3.41159 17.5614 2.85507 16.1391 2.42222C16.0464 2.3913 15.9536 2.3913 15.8609 2.42222C14.4386 2.85507 13.0783 3.41159 11.7797 4.09179C11.7179 4.12271 11.687 4.15362 11.6251 4.18454C11.5942 4.15362 11.5633 4.09179 11.5324 4.06087C11.2541 3.78261 11.0377 3.47343 10.8213 3.16425C10.4502 2.54589 10.2029 1.89662 10.0483 1.18551C10.0483 1.12367 10.0174 1.09275 10.0174 1.03092C7.54396 2.05121 5.44155 3.5971 3.71014 5.63768C4.79227 6.22512 5.65797 7.0599 6.24541 8.17295C6.21449 8.20387 6.15266 8.23478 6.12174 8.2657C5.07053 9.28599 4.11208 10.43 3.27729 11.6357C3.21546 11.6976 3.21546 11.7903 3.21546 11.8522C3.21546 12.5633 3.21546 13.2744 3.27729 13.9855C3.33913 14.6348 3.40097 15.2841 3.49372 15.9024C3.52464 16.0879 3.55556 16.2425 3.55556 16.428C2.41159 16.9536 1.23671 17.1391 0 16.9536C0.185507 19.6435 0.989372 22.1169 2.41159 24.3739C2.50435 24.2812 2.62802 24.1884 2.72077 24.1266C3.52464 23.4464 4.42126 23.0135 5.44155 22.7971C5.50338 22.7971 5.56522 22.7971 5.59614 22.7662C5.62705 22.7971 5.62705 22.7971 5.62705 22.7971C5.65797 22.8589 5.68889 22.8899 5.71981 22.9517C6.36908 24.2193 7.11111 25.456 7.97681 26.6C8.03865 26.6618 8.10048 26.7237 8.19324 26.7546C9.15169 27.0638 10.1101 27.342 11.0686 27.5585C11.5942 27.6821 12.1198 27.7749 12.6763 27.8676C12.6763 27.8986 12.7072 27.9604 12.7072 27.9913C12.7691 28.5787 12.7691 29.1353 12.6763 29.6918C12.5836 30.2174 12.429 30.7121 12.2126 31.2068C12.1816 31.2686 12.1816 31.3304 12.1507 31.3923C12.1816 31.3923 12.2126 31.4232 12.2435 31.4232C13.4184 31.7014 14.6242 31.856 15.8609 31.887C15.6444 31.6396 15.5208 31.3614 15.428 31.0522Z" fill="#1971BD"/>
<path d="M26.2802 22.1787C27.7952 23.6937 29.372 25.2396 30.9797 26.8473C30.2377 26.8473 29.4956 26.8473 28.6918 26.8473C28.6918 28.486 28.6918 30.0937 28.6918 31.7014C27.0222 31.7014 25.4454 31.7014 23.8068 31.7014C23.8068 30.0937 23.8068 28.5169 23.8068 26.8782C23.0029 26.8782 22.2609 26.8782 21.4879 26.8782C23.1266 25.2705 24.7034 23.6937 26.2802 22.1787Z" fill="#1971BD"/>
</g>
<defs>
<clipPath id="clip0">
<rect width="32" height="30.9179" fill="white" transform="translate(0 1)"/>
</clipPath>
</defs>
</svg>

<svg xmlns="http://www.w3.org/2000/svg" width="32" height="32" fill="none" xmlns:v="https://vecta.io/nano"><g clip-path="url(#A)" fill="#1971bd"><path d="M12.553 12.656c1.144 0 2.102.928 2.102 2.102 0 1.144-.927 2.102-2.102 2.102-1.144 0-2.102-.928-2.102-2.102.031-1.175.958-2.102 2.102-2.102zm6.894 0c1.206 0 2.103 1.02 2.072 2.164-.031 1.113-.989 2.041-2.164 2.01s-2.072-1.02-2.01-2.195c.031-1.082.989-2.01 2.102-1.979zm-4.019 18.396c-.557-1.824.062-3.772 1.608-4.885.278-.216.402-.402.402-.773 0-.804.155-1.546.371-2.226-.062 0-.124 0-.186.031l-1.639.093a21.07 21.07 0 0 1-4.823-.649c-.093-.031-.155-.062-.216-.155-1.299-2.041-2.164-4.236-2.628-6.616-.155-.835-.247-1.639-.309-2.473a.5.5 0 0 1 .093-.278c2.102-2.535 4.669-4.421 7.73-5.627a.34.34 0 0 1 .247 0 18.79 18.79 0 0 1 7.76 5.658.5.5 0 0 1 .093.278c-.124 1.855-.495 3.679-1.144 5.411 2.226-.402 4.236.124 5.936 1.793.155.155.464.278.711.278a4.68 4.68 0 0 1 1.639.309 15.21 15.21 0 0 0 .897-4.267c-.618.062-1.237.093-1.824 0a5.94 5.94 0 0 1-1.731-.557c0-.062.031-.124.031-.185l.216-1.824a17.39 17.39 0 0 0 .093-2.535.43.43 0 0 0-.093-.278c-.773-1.113-1.639-2.133-2.566-3.092l-.371-.371c.309-.587.68-1.082 1.144-1.515.371-.371.773-.649 1.237-.928.062-.031.093-.062.155-.093-1.7-2.041-3.803-3.556-6.276-4.576a7.83 7.83 0 0 1-.556 1.7c-.278.557-.618 1.02-1.051 1.484-.062-.031-.124-.062-.155-.093-1.299-.68-2.659-1.237-4.081-1.67a.43.43 0 0 0-.278 0c-1.422.433-2.783.989-4.081 1.67-.062.031-.093.062-.155.093-.031-.031-.062-.093-.093-.124-.278-.278-.495-.587-.711-.897-.371-.618-.618-1.268-.773-1.979 0-.062-.031-.093-.031-.155-2.473 1.02-4.576 2.566-6.307 4.607 1.082.587 1.948 1.422 2.535 2.535-.031.031-.093.062-.124.093a22.8 22.8 0 0 0-2.844 3.37c-.062.062-.062.155-.062.216l.062 2.133.216 1.917c.031.186.062.34.062.526-1.144.526-2.319.711-3.556.526a15.73 15.73 0 0 0 2.412 7.42c.093-.093.216-.185.309-.247a6.07 6.07 0 0 1 2.721-1.329c.062 0 .124 0 .155-.031l.031.031c.031.062.062.093.093.155.649 1.268 1.391 2.504 2.257 3.648a.56.56 0 0 0 .216.155l2.875.804 1.608.309c0 .031.031.093.031.124.062.587.062 1.144-.031 1.701a6.58 6.58 0 0 1-.464 1.515c-.031.062-.031.124-.062.185.031 0 .062.031.093.031 1.175.278 2.381.433 3.617.464-.217-.247-.34-.526-.433-.835zm10.852-8.873l4.7 4.669h-2.288v4.854h-4.885v-4.823h-2.319l4.792-4.699z"/></g><defs><clipPath id="A"><path fill="#fff" transform="translate(0 1)" d="M0 0h32v30.918H0z"/></clipPath></defs></svg>
